X:736
T:Kelly the Rake
C:anon.
O:Ireland
B:Francis O'Neill: "Music of Ireland" no. 736
R:jig
Z:Transcribed by Michael Hogan
F:http://abc.musicaviva.com/tunes/ireland/oneill-1850/oneill-1850-0736.abc
M:6/8
L:1/8
K:G
gdB gdB | gdB g2a | bag gfg | afd d^cd |*gdB gdB |gdB g2a | bag fga |1 g3 g2 z :|2 g3 =f2 z ||*K:Gm*fdB {c}BAB | fBB gBB | fdB {c}BAB | cAF FAc |*fdB {c}BAB | fBB gBB | fba gfe |1 dcB AGF :|2 dcB AFd |]*X:736
T:Kelly the Rake
R:jig
B:O'Neill's 736
Z:Transcribed by Michael Hogan
M:6/8
L:1/8
K:G
gdB gdB | gdB g2a | bag gfg | afd d^cd |
gdB gdB |gdB g2a | bag fga |1 g3 g2 z :|2 g3 =f2 z ||
K:Gm
fdB {c}BAB | fBB gBB | fdB {c}BAB | cAF FAc |
fdB {c}BAB | fBB gBB | fba gfe |1 dcB AGF :|2 dcB AFd |]
W:
W:
W:  From Musica Viva - http://www.musicaviva.com
W:  the Internet center for free sheet music downloads.
